public/svg/iosIcon.svg

<svg xmlns="http://www.w3.org/2000/svg" width="56" height="56" viewBox="0 0 56 56" fill="none">
<rect width="56" height="56" fill="#C4C4C4" fill-opacity="0.01"/>
<path d="M21.0003 16.3334C14.0003 16.3334 11.667 23.3334 11.667 29.1667C11.667 36.1667 16.3337 46.6667 21.0003 46.6667C23.539 46.5594 24.918 45.5 28.0003 45.5C31.0617 45.5 31.5003 46.6667 35.0003 46.6667C38.5003 46.6667 44.3337 39.6667 44.3337 35C44.2683 34.9767 38.5657 34.0597 38.5003 28C38.456 22.9367 44.1377 21.1074 44.3337 21C41.9467 17.5187 37.448 16.4197 36.167 16.3334C32.8233 16.0744 29.5637 18.6667 28.0003 18.6667C26.4137 18.6667 23.567 16.3334 21.0003 16.3334Z" stroke="#1B5BF7" stroke-width="3.5" stroke-linecap="round" stroke-linejoin="round"/>
<path d="M28 9.33341C29.2377 9.33341 30.4247 8.84175 31.2998 7.96658C32.175 7.09141 32.6667 5.90443 32.6667 4.66675C31.429 4.66675 30.242 5.15841 29.3668 6.03358C28.4917 6.90875 28 8.09574 28 9.33341" stroke="#1B5BF7" stroke-width="3.5" stroke-linecap="round" stroke-linejoin="round"/>
</svg>

<svg xmlns="http://www.w3.org/2000/svg" width="56" height="56" fill="none" xmlns:v="https://vecta.io/nano"><path fill="#c4c4c4" fill-opacity=".01" d="M0 0h56v56H0z"/><g stroke="#1b5bf7" stroke-width="3.5" stroke-linejoin="round"><path d="M21 16.333c-7 0-9.333 7-9.333 12.833 0 7 4.667 17.5 9.333 17.5 2.539-.107 3.918-1.167 7-1.167 3.061 0 3.5 1.167 7 1.167s9.333-7 9.333-11.667c-.065-.023-5.768-.94-5.833-7-.044-5.063 5.637-6.893 5.833-7-2.387-3.481-6.886-4.58-8.167-4.667-3.344-.259-6.603 2.333-8.167 2.333-1.587 0-4.433-2.333-7-2.333z"/><path d="M28 9.333c1.238 0 2.425-.492 3.3-1.367s1.367-2.062 1.367-3.3c-1.238 0-2.425.492-3.3 1.367S28 8.096 28 9.333" stroke-linecap="round"/></g></svg>
